icons/extensions/styl.svg

<?xml version="1.0" encoding="UTF-8"?>
<svg width="42px" height="42px" viewBox="0 0 42 42" version="1.1" xmlns="http://www.w3.org/2000/svg" xmlns:xlink="http://www.w3.org/1999/xlink">
    <!-- Generator: Sketch 44.1 (41455) - http://www.bohemiancoding.com/sketch -->
    <desc>Created with Sketch.</desc>
    <defs>
        <path d="M6,11.0049466 C6,9.89764516 6.88976324,9 8.00359486,9 L30.004543,9 C30.5543187,9 31.3127724,9.31277239 31.7057732,9.70577316 L35.2942268,13.2942268 C35.6840146,13.6840146 36,14.4509254 36,14.9947712 L36,31.0025781 C36,32.1057238 35.1021596,33 34.008383,33 L7.99161703,33 C6.89167732,33 6,32.1029738 6,30.9950534 L6,11.0049466 Z" id="path-1"></path>
    </defs>
    <g id="扩展名-(icons/extensions-5-10)" stroke="none" stroke-width="1" fill="none" fill-rule="evenodd">
        <g id="Stylus">
            <g id="Mask">
                <use fill="#121212" fill-rule="evenodd" xlink:href="#path-1"></use>
                <path stroke="#FF5538" stroke-width="2" d="M7,11.0049466 L7,30.9950534 C7,31.5519156 7.44520033,32 7.99161703,32 L34.008383,32 C34.5518298,32 35,31.5514822 35,31.0025781 L35,14.9947712 C35,14.714188 34.7879905,14.202204 34.5871201,14.0013336 L30.9986664,10.4128799 C30.7943372,10.2085507 30.2907084,10 30.004543,10 L8.00359486,10 C7.44527569,10 7,10.4466967 7,11.0049466 Z"></path>
            </g>
            <path d="M20,22.783793 C17.7333333,22.2436253 15,23.9316495 15,26.7000091 C15,26.7048226 15.1996367,29.1148911 18.2,28.995722 C21.6,28.8606801 24.2,26.1850958 24.2,23.7290866 C24.2,20.6105938 22.6666667,19.1376608 22.2666667,16.706906 C22.1324819,15.89148 22.7658854,15.0864028 23.4,15.0864028 C24.4666667,15.0864028 24.4,16.4368221 23.6666667,17.3821157 C24.8,17.9222834 26,16.706906 26,15.5185376 C26,15.2842841 25.5629151,13.8972858 23.2,14.0060673 C21.7333341,14.0735883 19.6,15.3564867 19.6,18.4624512 C19.6,20.7108862 20.9333333,21.8603251 20.9333333,24.5393382 C20.9333333,26.6085319 18.5431898,27.7570273 18.2,27.6453027 C16.3333333,27.037614 18.6,23.3914818 20,22.783793 Z" id="Path-15" fill="#FF5538" transform="translate(20.500000, 21.500000) rotate(-360.000000) translate(-20.500000, -21.500000) "></path>
        </g>
    </g>
</svg>

<svg viewBox="0 0 42 42" xmlns="http://www.w3.org/2000/svg" xmlns:xlink="http://www.w3.org/1999/xlink"><defs><path d="M6 11.005A2 2 0 0 1 8.004 9h22c.55 0 1.309.313 1.702.706l3.588 3.588c.39.39.706 1.157.706 1.7v16.009A1.998 1.998 0 0 1 34.008 33H7.992C6.892 33 6 32.103 6 30.995v-19.99z" id="a"/></defs><g fill="none" fill-rule="evenodd"><use fill="#121212" xlink:href="#a"/><path stroke="#FF5538" stroke-width="2" d="M7 11.005v19.99A.998.998 0 0 0 7.992 32h26.016a.999.999 0 0 0 .992-.997V14.995c0-.28-.212-.793-.413-.994L31 10.413c-.205-.204-.708-.413-.994-.413H8.004A1 1 0 0 0 7 11.005z"/><path d="M20 22.784c-2.267-.54-5 1.148-5 3.916 0 .005.2 2.415 3.2 2.296 3.4-.135 6-2.81 6-5.267 0-3.118-1.533-4.591-1.933-7.022-.135-.816.499-1.62 1.133-1.62 1.067 0 1 1.35.267 2.295C24.8 17.922 26 16.707 26 15.52c0-.235-.437-1.622-2.8-1.513-1.467.068-3.6 1.35-3.6 4.456 0 2.249 1.333 3.398 1.333 6.077 0 2.07-2.39 3.218-2.733 3.106-1.867-.607.4-4.254 1.8-4.861z" fill="#FF5538"/></g></svg>
